src/lib/packages/icons/src/assets/line/clipboard-star.svg

<svg width="24" height="24" viewBox="0 0 24 24" fill="none" xmlns="http://www.w3.org/2000/svg">
<path d="M17 4.25H16.73C16.633 2.996 15.821 2.25 14.5 2.25H9.5C8.179 2.25 7.36702 2.996 7.27002 4.25H7C4.582 4.25 3.25 5.582 3.25 8V18C3.25 20.418 4.582 21.75 7 21.75H17C19.418 21.75 20.75 20.418 20.75 18V8C20.75 5.582 19.418 4.25 17 4.25ZM8.75 4.5C8.75 3.911 8.911 3.75 9.5 3.75H14.5C15.089 3.75 15.25 3.911 15.25 4.5V5.5C15.25 6.089 15.089 6.25 14.5 6.25H9.5C8.911 6.25 8.75 6.089 8.75 5.5V4.5ZM19.25 18C19.25 19.577 18.577 20.25 17 20.25H7C5.423 20.25 4.75 19.577 4.75 18V8C4.75 6.423 5.423 5.75 7 5.75H7.27002C7.36702 7.004 8.179 7.75 9.5 7.75H14.5C15.821 7.75 16.633 7.004 16.73 5.75H17C18.577 5.75 19.25 6.423 19.25 8V18ZM15.271 11.94L13.7119 11.718L13.043 10.39C12.844 9.99501 12.443 9.75 11.999 9.75C11.555 9.75 11.1541 9.99501 10.9551 10.39L10.2859 11.718L8.72705 11.94C8.29005 12.002 7.93698 12.3 7.80298 12.717C7.66898 13.131 7.78212 13.576 8.09912 13.878L9.21606 14.944L8.96289 16.392C8.88689 16.827 9.06099 17.26 9.41699 17.522C9.77799 17.787 10.2509 17.826 10.6479 17.62L11.998 16.926L13.3491 17.621C13.5191 17.709 13.703 17.752 13.886 17.752C14.131 17.752 14.3731 17.675 14.5791 17.523C14.9351 17.261 15.11 16.828 15.033 16.394L14.78 14.945L15.8979 13.879C16.2129 13.577 16.3271 13.133 16.1931 12.719C16.0621 12.3 15.708 12.002 15.271 11.94ZM13.603 13.995C13.331 14.256 13.207 14.633 13.271 15.005L13.4409 15.979L12.5249 15.508C12.3609 15.424 12.18 15.381 12.001 15.381C11.822 15.381 11.642 15.423 11.478 15.507L10.561 15.979L10.7319 15.003C10.7949 14.633 10.6709 14.256 10.3979 13.994L9.68994 13.318L10.6831 13.177C11.0511 13.125 11.371 12.897 11.542 12.563L12.001 11.652L12.4619 12.567C12.6309 12.898 12.9511 13.126 13.3181 13.177L14.312 13.319L13.603 13.995Z" fill="currentColor"/>
</svg>

<svg xmlns="http://www.w3.org/2000/svg" width="24" height="24" fill="none"><path fill="currentColor" d="M17 4.25h-.27c-.097-1.254-.909-2-2.23-2h-5c-1.321 0-2.133.746-2.23 2H7C4.582 4.25 3.25 5.582 3.25 8v10c0 2.418 1.332 3.75 3.75 3.75h10c2.418 0 3.75-1.332 3.75-3.75V8c0-2.418-1.332-3.75-3.75-3.75Zm-8.25.25c0-.589.161-.75.75-.75h5c.589 0 .75.161.75.75v1c0 .589-.161.75-.75.75h-5c-.589 0-.75-.161-.75-.75v-1ZM19.25 18c0 1.577-.673 2.25-2.25 2.25H7c-1.577 0-2.25-.673-2.25-2.25V8c0-1.577.673-2.25 2.25-2.25h.27c.097 1.254.909 2 2.23 2h5c1.321 0 2.133-.746 2.23-2H17c1.577 0 2.25.673 2.25 2.25v10Zm-3.979-6.06-1.56-.222-.668-1.328c-.199-.395-.6-.64-1.044-.64-.444 0-.845.245-1.044.64l-.67 1.328-1.558.222c-.437.062-.79.36-.924.777-.134.414-.02.859.296 1.161l1.117 1.066-.253 1.448a1.15 1.15 0 0 0 .454 1.13c.361.265.834.304 1.23.098l1.351-.694 1.351.695a1.166 1.166 0 0 0 1.23-.098c.356-.262.531-.695.454-1.129l-.253-1.449 1.118-1.066c.315-.302.43-.746.295-1.16a1.121 1.121 0 0 0-.922-.779Zm-1.668 2.055a1.131 1.131 0 0 0-.332 1.01l.17.974-.916-.471a1.153 1.153 0 0 0-1.047-.001l-.917.472.17-.976a1.133 1.133 0 0 0-.333-1.009l-.708-.676.993-.141c.368-.052.688-.28.859-.614l.459-.911.46.915c.17.331.49.559.857.61l.994.142-.709.676Z"/></svg>
